X:1
T:LITTLE PEGGY'S LOVE
L:1/8
M:6/8
I:linebreak $
K:G
V:1 treble 
V:1
 d/c/ | BAG GAB | ccc d2 d | d2 e c2 d | B2 c A2 d/c/ | BAG GAB | ccc cde | dcB cBA | G3- G2 ::$ %9
 B | dGg ecA | FDd B2 G | EcB AGF | GGG G2 d | dGg ecA | FDd B2 G | EcB AGF |$ G3- G2 :| %18
